X: 135
T: Divlevo
O: Macedonia
F: http://www.youtube.com/watch?v=KiaNf3iQJZc
M: 2/4
L: 1/8
Q: 1/4=120
K: Bm
%%MIDI program 109
  d2 cA |BBBc |d2 cA |B2 e2|\
  d2 cA |BBBc |d2 cA |B2 B2|
  A2 ^GE|FFFE |A2 ^GE|F2 B2|\
  A2 ^GE|FFFE |A2 ^GE|F2 F2|
%%MIDI drum d2 47 90
%%MIDI drumon
Q: 1/4=160
|:d2 cA |B2Bc |d2 cA |B4   |\
  d2 cA |B2Bc |d2 cA |B4   :|
|:d2 cA |B2Bc |d2 cA |e4   |\
  d2 cA |B2Bc |d2 cA |B4   :|
|:d2 c2 |d2 c2|d2 cA |B2 e2|\
  d2 c2 |d2 c2|d2 cA |B4   :|



